X:1
T:Tr\`es Moutarde    [G]
T:Tr\`es Moutarde    [G]
T:Too Much Mustard
T:Cecil Macklin (1911)
C:Cecil Macklin (1911)
L:1/8
M:2/4
K:G
V:1 treble 
V:1
"^Intro" x4 || [Dd][Ee] [Ff][Gg] | [^G^g][Aa] [dd']2 | [Fcd][^Ecd] [Fcd][Ecd] | %4
 [Fcd]2"^>" [dfc'd'] (3(D/E/F/) ||"A" x4 |:"G" z [B,DA] [B,DG][B,DA] | [B,DG][B,DA]"^>" G2 | %8
 z [B,DB] [B,DA][B,DG] | [B,D][G,B,]"^>" D2 |"D7" z [A,CF] [A,CE][A,CF] | DA,"^>" D2 |1 z E DE | %13
 D2"^>" [DFcd] (3(D/E/F/) :|2 [Fcd][Fc^d] [Fce][Fcf] |"G" [GBdg]2"^>" [B,DG]2 |]"B" x4 |: %17
"Gm" G2 _B2- | BG ^FG |"Eb" _EG"^/D" _B2- |"^/C" BG"^/B" A_B |"C7" _B2 A2- |"D7" AD EF |1 %23
"Gm" AG D_B, |"^D7/Bb  /A" D4 :|2"Gm" G4- | G4 |]"C" x4 |]"G7" [B,=FG]"^>" [B,FG]2 [FGB] | d2 _e2 | %30
"Cm" d [_EGc]2 [EG] | _E2 =FE |"Gm" G"^>" G2 G |"D" GD EF |"Gm" G4- | %35
 G2"^>" [G_Bdg] (3(D/E/"^->A"F/) |]"D""^Trio." x4 |:"Em" [GB][GB]"B7" [FA][FA]/[FA]/ | %38
"Em" [EG][EG] EB, |"B7" [^DAB][DAc] [DAB]2- | [DAB][^DAc] [DAB]2 | %41
"Em" [GB][GB]"B7" [FA][FA]/[FA]/ |"Em" [EG][EG] EB, |"B7" [^DAB][DAc] [DA^c][DA^d] |"Em" [EGBe]4 :| %45
"F" x4 |:"C" [eg][ce] [eg][ce] |"G7" [B=fg][Bfa]"^>" [Bfg]2 |"C" [eg][ce] [eg][ce] | %49
"G7" [B=fg][Bfa]"^>" [Bfg]2 |"A7" [Ge][G^c] [Ge][Gc] |"D7" [^F=cd][Fce] [Fcd]2 |1 %52
"D7" [CFB][CFA] [CF^G][CFA] |"G7" [=FGd]2 [GB=fg]2 :|2"G" [B,G][CA] [B,G][Ge] | %55
"C" [EGc]2"^>" [cegc']2!D.C.! |] %56

